icons/layers.svg

<svg width="24" height="24" viewBox="0 0 24 24" fill="none" xmlns="http://www.w3.org/2000/svg">
<path d="M2 11V12C5.60137 12.9003 8.89969 14.4848 12 16.5C15.1003 14.4848 18.3986 12.9003 22 12V11M2 15.5V16.5C5.60137 17.4003 8.89969 18.9848 12 21C15.1003 18.9848 18.3986 17.4003 22 16.5V15.5M12 12C8.89969 9.9848 5.60137 8.40034 2 7.5C5.10031 5.4848 8.39863 3.90034 12 3C15.6014 3.90034 18.8997 5.4848 22 7.5C18.3986 8.40034 15.1003 9.9848 12 12Z" stroke="black" stroke-width="2" stroke-linecap="round" stroke-linejoin="round"/>
</svg>

<svg xmlns="http://www.w3.org/2000/svg" width="24" height="24" viewBox="0 0 24 24" fill="none" stroke="currentColor" stroke-width="2" stroke-linecap="round" stroke-linejoin="round">
<path d="M2 11v1c3.601.9 6.9 2.485 10 4.5 3.1-2.015 6.399-3.6 10-4.5v-1M2 15.5v1c3.601.9 6.9 2.485 10 4.5 3.1-2.015 6.399-3.6 10-4.5v-1M12 12C8.9 9.985 5.601 8.4 2 7.5 5.1 5.485 8.399 3.9 12 3c3.601.9 6.9 2.485 10 4.5-3.601.9-6.9 2.485-10 4.5"/>
</svg>
